actions/16/package-installed-outdated.svg

<svg xmlns="http://www.w3.org/2000/svg" viewBox="0 0 16 16">
  <defs id="defs3051">
    <style type="text/css" id="current-color-scheme">
      .ColorScheme-Text {
        color:#808080;
      }
      .ColorScheme-NegativeText {
        color:#da4453;
      }
      </style>
  </defs>
  <g transform="translate(-421.71-531.79)">
 <path style="fill:currentColor;fill-opacity:1;stroke:none" 
     d="m426.71 533.79c-.552 0-1 .448-1 1v2h-2v9h6v-1h-5v-7h10v2h1v-3h-2v-2c0-.552-.448-1-1-1zm0 1h6v2h-6z"
     class="ColorScheme-Text"
     />
  <path d="m432.71 539.79c-1.662 0-3 1.338-3 3 0 1.662 1.338 3 3 3 1.662 0 3-1.338 3-3 0-1.662-1.338-3-3-3m0 1c1.108 0 2 .892 2 2 0 1.108-.892 2-2 2-1.108 0-2-.892-2-2 0-1.108.892-2 2-2m-1 1v2h2v-1h-1v-1z"   style="fill:currentColor;fill-opacity:1;stroke:none" 
     class="ColorScheme-NegativeText"
   />
</g>
</svg>

<svg xmlns="http://www.w3.org/2000/svg" version="1.1" viewBox="0 0 16 16">
 <defs>
  <style id="current-color-scheme" type="text/css">
   .ColorScheme-Text { color:#808080; } .ColorScheme-NegativeText { color:#da4453; }
  </style>
 </defs>
 <g transform="translate(-421.71,-531.79)">
  <path class="ColorScheme-Text" d="M 426.71,533.79 C 426.16,533.79 425.71,534.24 425.71,534.79 V 536.79 H 423.71 V 545.79 H 429.71 V 544.79 H 424.71 V 537.79 H 434.71 V 539.79 H 435.71 V 536.79 H 433.71 V 534.79 C 433.71,534.24 433.26,533.79 432.71,533.79 Z M 426.71,534.79 H 432.71 V 536.79 H 426.71 Z" style="color:#808080;fill:currentColor"/>
  <path class="ColorScheme-NegativeText" d="M 432.71,539.79 C 431.05,539.79 429.71,541.13 429.71,542.79 429.71,544.45 431.05,545.79 432.71,545.79 434.37,545.79 435.71,544.45 435.71,542.79 435.71,541.13 434.37,539.79 432.71,539.79 M 432.71,540.79 C 433.82,540.79 434.71,541.68 434.71,542.79 434.71,543.9 433.82,544.79 432.71,544.79 431.6,544.79 430.71,543.9 430.71,542.79 430.71,541.68 431.6,540.79 432.71,540.79 M 431.71,541.79 V 543.79 H 433.71 V 542.79 H 432.71 V 541.79 Z" style="color:#da4453;fill:currentColor"/>
 </g>
</svg>
